Obsidian-SemiLight/actions/24s/draw-polygon.svg

<svg viewBox="0 0 24 24" xmlns="http://www.w3.org/2000/svg"><path d="m12.007812 4-8.1777339 8.177734 4.515625 7.822266h7.2734379l4.017578-6.957031.517578-.896485zm-.001953 1.4140625 6.898438 6.8964845-3.861328 6.689453h-6.1191409l-3.84375-6.658203z" fill="#4d4d4d"/></svg>

<svg xmlns="http://www.w3.org/2000/svg" viewBox="0 0 24 24">
  <defs id="defs3051">
    <style type="text/css" id="current-color-scheme">
      .ColorScheme-Text {
        color:#4d4d4d;
      }
      </style>
  </defs>
 <path style="fill:currentColor;fill-opacity:1;stroke:none" 
     d="M 12.007812 4 L 3.8300781 12.177734 L 8.3457031 20 L 15.619141 20 L 19.636719 13.042969 L 20.154297 12.146484 L 12.007812 4 z M 12.005859 5.4140625 L 18.904297 12.310547 L 15.042969 19 L 8.9238281 19 L 5.0800781 12.341797 L 12.005859 5.4140625 z "
     class="ColorScheme-Text"
     />
</svg>
